Papirus/32x32/apps/borderlands-the-pre-sequel.svg

<svg width="32" height="32" version="1" xmlns="http://www.w3.org/2000/svg">
 <rect transform="scale(-1,1)" x="-30" y="3" width="28" height="28" rx="14" ry="14" style="opacity:.2"/>
 <rect transform="scale(-1,1)" x="-30" y="2" width="28" height="28" rx="14" ry="14" style="fill:#5f89c9"/>
 <path d="m13.717821 6.2419226c1.161234-0.2488853 2.374557-0.3070086 3.559819-0.1684588 1.719961 0.2010287 3.385336 0.8150274 4.830842 1.7808022 1.428933 0.9546192 2.60231 2.213137 3.447924 3.696562 0.323991 0.568333 0.600255 1.174716 0.820849 1.803329 0.154201 0.439852 0.29499 0.94875 0.391466 1.411561 0.501543 2.41115 0.182803 4.897622-0.911831 7.108216-0.07906 0.159595-0.08143 0.164079-0.08839 0.16022-0.0076-0.0033-0.04343-0.05475-0.552739-0.773607-1.918124-2.707295-4.508777-6.399985-7.54721-10.75434-0.925986-1.3269662-1.182653-1.6940376-1.229121-1.7635466-0.288189-0.4312392-0.583004-0.7481018-0.914736-0.9825476-0.07959-0.056121-0.27469-0.1676895-0.361339-0.2064913-0.3992-0.1788503-0.82171-0.2314767-1.295681-0.1597069-0.130983 0.019827-0.214755 0.037833-0.363941 0.0778-0.149187 0.039957-0.230774 0.066371-0.354093 0.1145423-0.44637 0.1747571-0.787238 0.4318834-1.043443 0.7863-0.05563 0.076944-0.168919 0.2710964-0.209655 0.3594464-0.17003 0.3688561-0.266804 0.7903995-0.300774 1.3081517-0.01339 0.200929-0.200411 2.343703-0.342343 3.921501-0.220966 2.45626-0.434244 4.728874-0.798062 8.493069-0.183987 1.903064-0.293657 3.04829-0.342679 3.572353-0.01134 0.123238-0.02204 0.227222-0.0235 0.230806-0.0044 0.0087-0.0071 0.0079-0.09435-0.04825-0.529313-0.340424-1.059548-0.753463-1.528736-1.190942-1.209621-1.127812-2.140381-2.514703-2.732971-4.071888-0.145719-0.383119-0.242732-0.685133-0.354571-1.102406-0.06785-0.253151-0.09595-0.386536-0.143966-0.600828-0.439942-2.093989-0.258832-4.257502 0.524295-6.256042 0.319014-0.813987 0.745325-1.60611 1.250217-2.322664 1.367641-1.9408617 3.305321-3.3758969 5.553571-4.1121936 0.359089-0.1175671 0.781948-0.2310104 1.155143-0.3107425zm0.300372 2.9287547c0.831838-0.086437 1.36474 0.5011181 1.819552 1.1196027 2.153357 3.728453 4.448786 7.766391 6.778212 11.922707 0.669845 1.195161 1.326306 2.371127 1.328737 2.380196 2e-3 0.0074-0.02672 0.03949-0.141098 0.154647-1.3128 1.323361-2.936707 2.286004-4.730889 2.806032-0.224236 0.06475-0.220024 0.06342-0.43131 0.115536-0.488237 0.119896-0.915309 0.199322-1.382863 0.254897-1.389891 0.165201-2.784595 0.05967-4.139339-0.313068-0.05372-0.01477-0.09885-0.02985-0.100547-0.03216-0.0012-0.0044-0.0091-0.36216-0.02503-1.524163-0.06214-4.536641-0.09693-9.233368-0.10206-13.73831 0.07328-1.357153 0.0078-2.7704126 1.126643-3.1459285z" style="opacity:.2"/>
 <path d="m13.717821 5.2419226c1.161234-0.2488853 2.374557-0.3070086 3.559819-0.1684588 1.719961 0.2010287 3.385336 0.8150274 4.830842 1.7808022 1.428933 0.9546192 2.60231 2.2131369 3.447924 3.696562 0.323991 0.568333 0.600255 1.174716 0.820849 1.803329 0.154201 0.439852 0.29499 0.94875 0.391466 1.411561 0.501543 2.41115 0.182803 4.897622-0.911831 7.108216-0.07906 0.159595-0.08143 0.164079-0.08839 0.16022-0.0076-0.0033-0.04343-0.05475-0.552739-0.773607-1.91812-2.707295-4.508773-6.399985-7.547206-10.75434-0.92599-1.3269666-1.182657-1.694038-1.229125-1.763547-0.288189-0.4312392-0.583004-0.7481018-0.914736-0.9825476-0.07959-0.056121-0.27469-0.1676895-0.361339-0.2064913-0.3992-0.1788503-0.82171-0.2314767-1.295681-0.1597069-0.130983 0.019827-0.214755 0.037833-0.363941 0.0778-0.149187 0.039957-0.230774 0.066371-0.354093 0.1145423-0.44637 0.1747571-0.787238 0.4318834-1.043443 0.7863-0.05563 0.076944-0.168919 0.2710964-0.209655 0.3594464-0.17003 0.3688561-0.266804 0.7903995-0.300774 1.3081517-0.01339 0.2009288-0.200411 2.343703-0.342343 3.921501-0.220966 2.45626-0.434244 4.728874-0.798062 8.493069-0.183987 1.903064-0.293657 3.04829-0.342679 3.572353-0.01134 0.123238-0.02204 0.227222-0.0235 0.230806-0.0044 0.0087-0.0071 0.0079-0.09435-0.04825-0.529313-0.340424-1.059548-0.753463-1.528736-1.190942-1.209621-1.127812-2.140381-2.514703-2.732971-4.071888-0.145719-0.383119-0.242732-0.685133-0.354571-1.102406-0.06785-0.253151-0.09595-0.386536-0.143966-0.600828-0.439942-2.093989-0.258832-4.257502 0.524295-6.256042 0.319014-0.813987 0.745325-1.60611 1.250217-2.3226642 1.367641-1.9408615 3.305321-3.3758967 5.553571-4.1121934 0.359089-0.1175671 0.781948-0.2310104 1.155143-0.3107425zm0.300372 2.9287547c0.831838-0.086437 1.36474 0.5011181 1.819552 1.1196028 2.153357 3.7284529 4.448786 7.7663909 6.778212 11.922707 0.669845 1.195161 1.326306 2.371127 1.328737 2.380196 2e-3 0.0074-0.02672 0.03949-0.141098 0.154647-1.3128 1.323361-2.936707 2.286004-4.730889 2.806032-0.224236 0.06475-0.220024 0.06342-0.43131 0.115536-0.488237 0.119896-0.915309 0.199322-1.382863 0.254897-1.389891 0.165201-2.784595 0.05967-4.139339-0.313068-0.05372-0.01477-0.09885-0.02985-0.100547-0.03216-0.0012-0.0044-0.0091-0.36216-0.02503-1.524163-0.06214-4.536641-0.09693-9.233368-0.10206-13.73831 0.07328-1.3571534 0.0078-2.7704126 1.126643-3.1459285z" style="fill:#f7b400"/>
 <path d="m 16,2 c 7.756,0 14,6.244 14,14 0,0.168842 -0.01952,0.33264 -0.02539,0.5 C 29.710867,8.9794325 23.587158,3 16,3 8.412842,3 2.289133,8.9794325 2.025391,16.5 2.019521,16.33264 2,16.168842 2,16 2,8.244 8.244,2 16,2 Z" style="fill:#ffffff;opacity:.1"/>
 <path d="m16.384766 5.0058594c0.29857 0.010146 0.596262 0.033722 0.892578 0.068359 1.719961 0.2010287 3.386525 0.813522 4.832031 1.7792968 1.428933 0.9546192 2.601652 2.2138405 3.447266 3.6972654 0.323991 0.568333 0.599718 1.174122 0.820312 1.802735 0.154201 0.439852 0.296103 0.949298 0.392578 1.412109 0.189573 0.911361 0.259211 1.834129 0.216797 2.748047-0.02632-0.583972-0.09612-1.167904-0.216797-1.748047-0.09648-0.462811-0.238377-0.972257-0.392578-1.412109-0.220594-0.6286126-0.496321-1.2344016-0.820312-1.8027346-0.845614-1.483425-2.018333-2.7426462-3.447266-3.6972654-1.445506-0.9657748-3.11207-1.5782681-4.832031-1.7792968-1.185262-0.1385498-2.39736-0.0809166-3.558594 0.1679687-0.373195 0.0797321-0.797161 0.1929798-1.15625 0.3105469-2.24825 0.7362967-4.185093 2.1704664-5.552734 4.1113276-0.504892 0.716555-0.930986 1.510232-1.25 2.324219-0.445705 1.137439-0.689996 2.328214-0.742188 3.529297-0.074257-1.53703 0.172925-3.07654 0.742188-4.529297 0.319014-0.813987 0.745108-1.607664 1.25-2.3242185 1.367641-1.9408615 3.304484-3.3750314 5.552734-4.1113281 0.359089-0.1175671 0.783055-0.2308148 1.15625-0.3105469 0.870925-0.186664 1.770303-0.2667651 2.666016-0.2363281zm-2.06836 3.1621094c0.665486 0.063011 1.123524 0.5818727 1.521485 1.1230468 2.153357 3.7284534 4.447918 7.7655594 6.777343 11.921875 0.669846 1.195161 1.327647 2.37179 1.330078 2.380859 2e-3 0.0074-0.0282 0.03914-0.142578 0.154297-0.06957 0.07013-0.149408 0.127223-0.220703 0.195312-0.22673-0.407709-0.479928-0.861782-0.966797-1.730468-2.329425-4.156316-4.623986-8.193422-6.777343-11.921875-0.454812-0.618485-0.988475-1.2075311-1.820313-1.1210941-1.082674 0.3633765-1.057526 1.6999411-1.121094 3.0156251-5.61e-4 -0.286446-0.0055-0.584141-0.0059-0.869141 0.07328-1.3571531 0.0081-2.7709682 1.126953-3.1464841 0.10398-0.010805 0.203759-0.010955 0.298828-0.00195z" style="fill:#ffffff;opacity:.2"/>
</svg>

<svg xmlns="http://www.w3.org/2000/svg" width="32" height="32" version="1">
 <circle style="opacity:0.2" cx="16" cy="17" r="14"/>
 <circle style="fill:#5f89c9" cx="16" cy="16" r="14"/>
 <path style="opacity:0.2" d="M 13.718,6.2422 C 14.879,5.9933 16.092,5.9352 17.278,6.0738 18.998,6.2748 20.663,6.8888 22.108,7.8546 23.537,8.8092 24.711,10.068 25.556,11.551 25.88,12.119 26.157,12.726 26.377,13.354 26.531,13.794 26.672,14.303 26.769,14.766 27.27,17.177 26.952,19.663 25.857,21.874 L 25.769,22.034 16.439,8.743 C 16.151,8.3117 15.856,7.9949 15.525,7.7604 15.445,7.7043 15.25,7.5927 15.163,7.5539 14.764,7.3751 14.342,7.3224 13.868,7.3942 13.654,7.4265 13.381,7.4961 13.15,7.5866 12.703,7.7613 12.362,8.0184 12.106,8.3729 12.051,8.4498 11.937,8.644 11.897,8.7323 11.727,9.1012 11.63,9.5227 11.596,10.041 L 10.089,26.258 9.9948,26.21 C 9.4655,25.869 8.9353,25.456 8.4661,25.019 7.2565,23.891 6.3257,22.504 5.7331,20.947 5.5125,20.367 5.3376,19.703 5.2346,19.244 4.7946,17.15 4.9758,14.986 5.7589,12.988 6.0779,12.174 6.5042,11.381 7.0091,10.665 8.3767,8.7243 10.314,7.2893 12.563,6.553 12.922,6.4354 13.345,6.322 13.718,6.2422 Z M 14.018,9.171 C 14.85,9.0845 15.383,9.6721 15.838,10.291 L 23.945,24.593 23.804,24.748 C 22.491,26.071 20.867,27.034 19.073,27.554 18.605,27.689 17.943,27.843 17.259,27.924 15.869,28.089 14.474,27.984 13.119,27.611 L 13.019,27.579 12.892,12.317 C 12.965,10.96 12.899,9.5465 14.018,9.171 Z"/>
 <path style="fill:#f7b400" d="M 13.718,5.2419 C 14.879,4.993 16.092,4.9349 17.278,5.0735 18.998,5.2745 20.663,5.8885 22.108,6.8543 23.537,7.8089 24.711,9.0674 25.556,10.551 25.88,11.119 26.157,11.726 26.377,12.354 26.531,12.794 26.672,13.303 26.769,13.766 27.27,16.177 26.952,18.663 25.857,20.874 L 25.769,21.034 16.439,7.7427 C 16.151,7.3114 15.856,6.9946 15.525,6.7601 15.445,6.704 15.25,6.5924 15.163,6.5536 14.764,6.3748 14.342,6.3221 13.868,6.3939 13.654,6.4262 13.381,6.4958 13.15,6.5863 12.703,6.761 12.362,7.0181 12.106,7.3726 12.051,7.4495 11.937,7.6437 11.897,7.732 11.727,8.1009 11.63,8.5224 11.596,9.0402 L 10.089,25.258 9.9948,25.21 C 9.4655,24.869 8.9353,24.456 8.4661,24.019 7.2565,22.891 6.3257,21.504 5.7331,19.947 5.5125,19.367 5.3376,18.703 5.2346,18.244 4.7946,16.15 4.9758,13.986 5.7589,11.988 6.0779,11.174 6.5042,10.381 7.0091,9.6649 8.3767,7.724 10.314,6.289 12.563,5.5527 12.922,5.4351 13.345,5.3217 13.718,5.2419 Z M 14.018,8.1707 C 14.85,8.0842 15.383,8.6718 15.838,9.2903 L 23.945,23.593 23.804,23.748 C 22.491,25.071 20.867,26.034 19.073,26.554 18.605,26.689 17.943,26.843 17.259,26.924 15.869,27.089 14.474,26.984 13.119,26.611 L 13.019,26.579 12.892,11.317 C 12.965,9.9594 12.899,8.5462 14.018,8.1707 Z"/>
 <path style="opacity:0.2;fill:#ffffff" d="M 16 2 A 14 14 0 0 0 2 16 A 14 14 0 0 0 2.0215 16.586 A 14 14 0 0 1 16 3 A 14 14 0 0 1 29.979 16.414 A 14 14 0 0 0 30 16 A 14 14 0 0 0 16 2 z"/>
 <path style="fill:#ffffff;opacity:0.2" d="M 16.385 5.0059 C 15.489 4.9754 14.589 5.0555 13.719 5.2422 C 13.346 5.322 12.921 5.4351 12.562 5.5527 C 10.313 6.289 8.3774 7.7232 7.0098 9.6641 C 6.5049 10.38 6.0788 11.174 5.7598 11.988 C 5.1905 13.441 4.9433 14.98 5.0176 16.518 C 5.0698 15.316 5.3141 14.125 5.7598 12.988 C 6.0788 12.174 6.5049 11.38 7.0098 10.664 C 8.3774 8.7234 10.313 7.289 12.562 6.5527 C 12.921 6.4351 13.346 6.322 13.719 6.2422 C 14.88 5.9933 16.091 5.9356 17.277 6.0742 C 18.997 6.2752 20.662 6.8897 22.107 7.8555 C 23.536 8.8101 24.712 10.068 25.557 11.551 C 25.881 12.119 26.157 12.726 26.377 13.354 C 26.531 13.794 26.673 14.303 26.77 14.766 C 26.891 15.349 26.962 15.936 26.988 16.523 C 27.032 15.606 26.96 14.68 26.77 13.766 C 26.673 13.303 26.531 12.794 26.377 12.354 C 26.157 11.726 25.881 11.119 25.557 10.551 C 24.712 9.0672 23.536 7.8081 22.107 6.8535 C 20.662 5.8877 18.997 5.2752 17.277 5.0742 C 16.981 5.0396 16.683 5.016 16.385 5.0059 z M 14.316 8.168 C 14.221 8.159 14.122 8.1591 14.018 8.1699 C 12.899 8.5454 12.966 9.9588 12.893 11.316 L 12.9 12.17 C 12.963 10.86 12.939 9.5338 14.018 9.1719 C 14.85 9.0854 15.383 9.6721 15.838 10.291 L 23.58 23.947 C 23.653 23.878 23.734 23.819 23.805 23.748 L 23.945 23.594 L 15.838 9.291 C 15.44 8.7498 14.982 8.2309 14.316 8.168 z"/>
</svg>
